X:135
T:no name
R:polka
Z:id:hn-polka-135
M:2/4
L:1/8
K:D
D2 EF | GE AF | D2 EF | GE CE |
D2 EF | GE A>B | cA GE |1 ED DA, :|2 ED D2 ||
|: d2 e>d | cA AB | cA AB | cA Bc |
dc/d/ e/f/e/d/ | cA AB | c>A GE |1 ED D2 :|2 ED DA, ||

